X:1710
T:Bonaparte's Defeat
M:C|
L:1/8
N:"collected by Carey"
B:O'Neill's 1710
R:Hornpipe
Z:"Transcribed by Bob Safranek, rjs@gsp.org"
K:A
AG|EAAG AcBA|GABc d2 ef|agfge dBBd|cABG TGEED|
EAAG AcBA|GABc d2 ef|agfge edBG|A2 AA     A2  :|
|: ef|agfge agae|gfge dBBd|c2 cB A2 GA|BcBA TGEED|
EAAG AcBA|GABc d2 ef|agfge edBG|A2 AA     A2  :|
